!!!OTL@@FUR: Al vaiva lu soreli
!!!OTL@IT: Piangeva il sole
!!!OTL@EN: The sun cried
**kern
*clefG2
*k[f#]
*G:
*M2/4
*MM72
*>[A,A]
*>A
8dd
8dd
=1!|:
*>B
8b
8b
16cc
16b
16cc
16dd
=2
8b
8b
8dd
8dd
=3
8b
8b
16cc
16b
16cc
16dd
=4
4b
8dd
8dd
=5
16ee
16dd
16cc
16b
16a
16a
16b
16cc
=6
16dd
16cc
16b
16a
8b
16a
16b
=7
8cc
8a
8b
8cc
=8
8b
8r
8dd
8dd
=9
4b;
==:|!
*-
!!!ARE: Friuli
!!!ENC: Kelly Leistikow
!!!END: 2002/03/07
!!!ref: @{OTL@@FUR}/@{OTL@EN}
